src/assets/mm_logo.svg

<?xml version="1.0" encoding="UTF-8"?>
<!DOCTYPE svg  PUBLIC '-//W3C//DTD SVG 1.1//EN'  'http://www.w3.org/Graphics/SVG/1.1/DTD/svg11.dtd'>
<svg clip-rule="evenodd" fill-rule="evenodd" stroke-linejoin="round" stroke-miterlimit="2" version="1.1" viewBox="0 0 66 29" xmlSpace="preserve" xmlns="http://www.w3.org/2000/svg" xmlnsSerif="http://www.serif.com/" xmlnsXlink="http://www.w3.org/1999/xlink">
    <g transform="matrix(2.318 0 0 2.318 -1634.8 -2044.9)" fill="#b1b1b1" fill-rule="nonzero">
        <path d="m707.3 887.1v7.327h-2.03v-12.253l6.126 6.127 6.144-6.127v12.253h-2.065v-7.327l-4.079 4.096-4.096-4.096z"/>
        <path d="m723.1 887.1v7.327h-2.031v-12.253l6.127 6.127 6.144-6.127v12.253h-2.066v-7.327l-4.078 4.096-4.096-4.096z"/>
    </g>
</svg>

<?xml version="1.0" encoding="UTF-8" standalone="no"?>
<!DOCTYPE svg PUBLIC "-//W3C//DTD SVG 1.1//EN" "http://www.w3.org/Graphics/SVG/1.1/DTD/svg11.dtd">
<svg width="100%" height="100%" viewBox="0 0 66 29" version="1.1" xmlns="http://www.w3.org/2000/svg" xmlns:xlink="http://www.w3.org/1999/xlink" xml:space="preserve" xmlns:serif="http://www.serif.com/" style="fill-rule:evenodd;clip-rule:evenodd;stroke-linejoin:round;stroke-miterlimit:2;">
    <g transform="matrix(2.31804,0,0,2.31804,-1634.83,-2044.92)">
        <path d="M707.295,887.105L707.295,894.432L705.265,894.432L705.265,882.179L711.391,888.306L717.535,882.179L717.535,894.432L715.47,894.432L715.47,887.105L711.391,891.201L707.295,887.105Z" style="fill:rgb(177,177,177);fill-rule:nonzero;"/>
        <path d="M723.097,887.105L723.097,894.432L721.066,894.432L721.066,882.179L727.193,888.306L733.337,882.179L733.337,894.432L731.271,894.432L731.271,887.105L727.193,891.201L723.097,887.105Z" style="fill:rgb(177,177,177);fill-rule:nonzero;"/>
    </g>
</svg>
